UI/POI/SVG/public-transport_solid_24px.svg

<svg width="24" height="24" viewBox="0 0 24 24" fill="none" xmlns="http://www.w3.org/2000/svg">
<path d="M20 2H10C9.46957 2 8.96086 2.21071 8.58579 2.58579C8.21071 2.96086 8 3.46957 8 4V8.5H10V8H20V14H16.5V20H18V21C18 21.2652 18.1054 21.5196 18.2929 21.7071C18.4804 21.8946 18.7348 22 19 22H21C21.2652 22 21.5196 21.8946 21.7071 21.7071C21.8946 21.5196 22 21.2652 22 21V4C22 3.46957 21.7893 2.96086 21.4142 2.58579C21.0391 2.21071 20.5304 2 20 2ZM20 18H18V16H20V18ZM20 6H10V4H20V6ZM13.55 13.11C13.3844 12.7768 13.1292 12.4964 12.813 12.3003C12.4967 12.1042 12.1321 12.0002 11.76 12H11L10.5 10H6.5L6 12H5.24C4.86792 12.0002 4.50326 12.1042 4.18704 12.3003C3.87083 12.4964 3.61558 12.7768 3.45 13.11L2.11 15.79C2.03862 15.9293 2.00094 16.0835 2 16.24V21C2 21.2652 2.10536 21.5196 2.29289 21.7071C2.48043 21.8946 2.73478 22 3 22H4C4.26522 22 4.51957 21.8946 4.70711 21.7071C4.89464 21.5196 5 21.2652 5 21H12C12 21.2652 12.1054 21.5196 12.2929 21.7071C12.4804 21.8946 12.7348 22 13 22H14C14.2652 22 14.5196 21.8946 14.7071 21.7071C14.8946 21.5196 15 21.2652 15 21V16.24C14.9991 16.0835 14.9614 15.9293 14.89 15.79L13.55 13.11ZM5.25 13.5H11.75L13 16H4L5.25 13.5ZM6 19.5H4V18H6V19.5ZM13 19.5H11V18H13V19.5Z" fill="#0F1621"/>
</svg>

<svg xmlns="http://www.w3.org/2000/svg" width="24" height="24" viewBox="0 0 24 24"><path d="M24,24H0V0H24Z" style="fill:none;opacity:0.05"/><path d="M20,2,10,2A2,2,0,0,0,8,4V8.5h2V8H20v6H16.5v6H18v1a1,1,0,0,0,1,1h2a1,1,0,0,0,1-1V4A2,2,0,0,0,20,2Zm0,16H18V16h2ZM20,6H10V4H20Zm-6.45,7.11A2,2,0,0,0,11.76,12H11l-.5-2h-4L6,12H5.24a2,2,0,0,0-1.79,1.11L2.11,15.79a1,1,0,0,0-.11.45V21a1,1,0,0,0,1,1H4a1,1,0,0,0,1-1h7a1,1,0,0,0,1,1h1a1,1,0,0,0,1-1V16.24a1,1,0,0,0-.11-.45Zm-8.3.39h6.5L13,16H4Zm.75,6H4V18H6Zm7,0H11V18h2Z"/></svg>
